Sources/FrostedUI/Resources/Icons.xcassets/tShirt24.imageset/t-shirt-24.svg

<svg width="24" height="24" viewBox="0 0 24 24" fill="none" xmlns="http://www.w3.org/2000/svg" data-fui-icon="true">
  <path
    d="M15.1084 1.84296C15.3193 1.72732 15.5727 1.71941 15.79 1.82245L23.0049 5.24432C23.7639 5.60438 24.0792 6.51799 23.7041 7.26971L21.9932 10.6994C21.6639 11.3592 20.9035 11.6826 20.2002 11.4611L19.5 11.2394V21.0002C19.4999 21.8285 18.8284 22.5002 18 22.5002H6C5.17163 22.5002 4.50009 21.8285 4.5 21.0002V11.2394L3.7998 11.4611C3.09647 11.6826 2.33612 11.3592 2.00684 10.6994L0.295898 7.26971C-0.0791838 6.51799 0.236088 5.60438 0.995117 5.24432L8.20996 1.82245L8.29297 1.78925C8.49003 1.72318 8.70701 1.74175 8.8916 1.84296C9.10205 1.95845 9.24509 2.16738 9.27539 2.40546L9.27734 2.4162C9.27945 2.42941 9.28301 2.45212 9.28906 2.4826C9.30146 2.54498 9.32318 2.63967 9.35742 2.75507C9.42684 2.98886 9.54493 3.2956 9.7373 3.59589C10.1045 4.16877 10.7514 4.75018 12 4.75018C13.2486 4.75018 13.8956 4.16877 14.2627 3.59589C14.4551 3.2956 14.5732 2.98886 14.6426 2.75507C14.6768 2.63967 14.6985 2.54498 14.7109 2.4826C14.717 2.45212 14.7205 2.42941 14.7227 2.4162L14.7246 2.40546C14.7549 2.16738 14.8979 1.95844 15.1084 1.84296ZM15.9492 3.5578C15.8493 3.81659 15.715 4.11005 15.5264 4.40448C14.9325 5.33141 13.8448 6.25018 12 6.25018C10.1552 6.25018 9.06749 5.33141 8.47363 4.40448C8.28497 4.10992 8.14972 3.81667 8.0498 3.5578L1.6377 6.59979L3.34961 10.0305L5.02441 9.50214C5.25211 9.43043 5.50079 9.47143 5.69336 9.61249C5.88593 9.75378 6 9.97911 6 10.218V21.0002H18V10.218C18 9.97911 18.1141 9.75378 18.3066 9.61249C18.4992 9.47143 18.7479 9.43043 18.9756 9.50214L20.6504 10.0305L22.3623 6.59979L15.9492 3.5578Z"
    fill="currentColor"
  />
</svg>

<svg xmlns="http://www.w3.org/2000/svg" width="24" height="24" fill="none" data-fui-icon="true" viewBox="0 0 24 24"><path fill="currentColor" d="M15.108 1.843a.75.75 0 0 1 .682-.02l7.215 3.421a1.5 1.5 0 0 1 .7 2.026l-1.712 3.43a1.5 1.5 0 0 1-1.793.761l-.7-.222V21a1.5 1.5 0 0 1-1.5 1.5H6A1.5 1.5 0 0 1 4.5 21v-9.76l-.7.221a1.5 1.5 0 0 1-1.793-.762L.296 7.27a1.5 1.5 0 0 1 .7-2.025L8.21 1.822l.083-.033a.75.75 0 0 1 .982.616l.002.011.012.067a3.34 3.34 0 0 0 .448 1.113c.367.573 1.014 1.154 2.263 1.154s1.896-.581 2.263-1.154a3.3 3.3 0 0 0 .448-1.113l.012-.067.002-.01a.75.75 0 0 1 .383-.563m.841 1.715c-.1.259-.234.552-.423.846-.594.927-1.681 1.846-3.526 1.846s-2.933-.919-3.526-1.846a4.7 4.7 0 0 1-.424-.846L1.638 6.6l1.712 3.43 1.674-.528a.75.75 0 0 1 .976.716V21h12V10.218a.752.752 0 0 1 .976-.716l1.674.528 1.712-3.43z"/></svg>
